images/battery.svg

<?xml version="1.0" encoding="UTF-8" standalone="no"?>
<!-- Created with Inkscape (http://www.inkscape.org/) -->

<svg
   xmlns:dc="http://purl.org/dc/elements/1.1/"
   xmlns:cc="http://creativecommons.org/ns#"
   xmlns:rdf="http://www.w3.org/1999/02/22-rdf-syntax-ns#"
   xmlns:svg="http://www.w3.org/2000/svg"
   xmlns="http://www.w3.org/2000/svg"
   xmlns:inkscape="http://www.inkscape.org/namespaces/inkscape"
   version="1.1"
   width="30"
   height="30"
   viewBox="0 0 30 30"
   id="svg2">
  <metadata
     id="metadata10">
    <rdf:RDF>
      <cc:Work
         rdf:about="">
        <dc:format>image/svg+xml</dc:format>
        <dc:type
           rdf:resource="http://purl.org/dc/dcmitype/StillImage" />
      </cc:Work>
    </rdf:RDF>
  </metadata>
  <defs
     id="defs8" />
  <path
     d="m 4.84375,9.5 c -0.935,0 -1.4375,1.887 -1.4375,5 0,3.116 0.5045,4.96875 1.4375,4.96875 0.056,0 0.10425,-0.01625 0.15625,-0.03125 l 0,0.0625 18.59375,0 0.21875,-1.09375 c 0.122718,-0.338046 0.222232,-0.6829 0.3125,-1.0625 l 2.09375,0 C 26.33375,16.85175 26.445,16.074 26.5,15.5 L 26.46875,13.03125 C 26.41075,12.48525 26.358,12.1605 26.25,11.6875 l -2.125,0 c -0.09158,-0.393935 -0.185662,-0.77425 -0.3125,-1.125 l -0.21875,-1.03125 -0.90625,0 C 22.6255,9.51125 22.565,9.5 22.5,9.5 c -0.062,0 -0.1265,0.00825 -0.1875,0.03125 l -17.28125,0 C 4.96825,9.51125 4.90675,9.5 4.84375,9.5 z"
     inkscape:connector-curvature="0"
     id="path4" />
</svg>

<?xml version="1.0" encoding="UTF-8" standalone="no"?>
<!-- Created with Inkscape (http://www.inkscape.org/) -->

<svg
   xmlns:dc="http://purl.org/dc/elements/1.1/"
   xmlns:cc="http://creativecommons.org/ns#"
   xmlns:rdf="http://www.w3.org/1999/02/22-rdf-syntax-ns#"
   xmlns:svg="http://www.w3.org/2000/svg"
   xmlns="http://www.w3.org/2000/svg"
   xmlns:inkscape="http://www.inkscape.org/namespaces/inkscape"
   version="1.1"
   width="30"
   height="30"
   viewBox="0 0 30 30"
   id="svg2">
  <metadata
     id="metadata10">
    <rdf:RDF>
      <cc:Work
         rdf:about="">
        <dc:format>image/svg+xml</dc:format>
        <dc:type
           rdf:resource="http://purl.org/dc/dcmitype/StillImage" />
      </cc:Work>
    </rdf:RDF>
  </metadata>
  <defs
     id="defs8" />
  <path
     d="m 24.436,14.482 c 0,-1.75 -0.238,-2.89 -0.613,-3.927 L 23.583,9.541 H 22.69 c -0.062,-0.02 -0.123,-0.033 -0.188,-0.033 -0.062,0 -0.125,0.013 -0.186,0.036 H 5.042 C 4.979,9.524 4.917,9.508 4.854,9.508 c -0.935,0 -1.452,1.865 -1.452,4.978 0,3.116 0.517,4.983 1.45,4.983 0.056,0 0.108,-0.012 0.16,-0.027 v 0.063 H 23.58 l 0.24,-1.088 c 0.375,-1.033 0.616,-2.18 0.616,-3.93 z M 26.252,11.7 h -3.197 c -0.064,0.38 -0.113,0.792 -0.15,1.22 v 3.133 c 0.04,0.453 0.094,0.887 0.164,1.285 h 3.165 c 0.115,-0.492 0.207,-1.264 0.262,-1.838 l -0.03,-2.468 c -0.058,-0.546 -0.11,-0.86 -0.218,-1.333 z"
     inkscape:connector-curvature="0"
     id="path4" />
</svg>
